assets/icons/lib/feedback.svg

<svg class="Icon Icon-feedback" width="24" height="24" viewBox="0 0 24 24" fill="none" xmlns="http://www.w3.org/2000/svg">
<path d="M3.00002 22C2.70002 22 2.50002 21.9 2.30002 21.7C2.00002 21.4 1.90002 21 2.10002 20.7L3.90002 15.4C3.30002 14.2 3.00002 12.8 3.00002 11.5C3.00002 9.7 3.50002 8 4.40002 6.5C5.30002 5 6.70002 3.8 8.30002 3C9.60002 2.3 11.1 2 12.5 2H13C15.4 2.1 17.6 3.1 19.2 4.8C20.9 6.5 21.8 8.6 22 11V11.6C22 13.1 21.7 14.5 21 15.9C20.2 17.5 19 18.8 17.5 19.7C16 20.6 14.3 21.1 12.5 21.1C11.2 21.1 9.90002 20.8 8.70002 20.3L3.40002 22.1C3.20002 22 3.10002 22 3.00002 22ZM12.5 4C11.3 4 10.2 4.3 9.20002 4.8C7.90002 5.4 6.90002 6.4 6.20002 7.6C5.40002 8.7 5.00002 10.1 5.00002 11.5C5.00002 12.7 5.30002 13.8 5.80002 14.8C5.90002 15 5.90002 15.3 5.90002 15.6L4.60002 19.4L8.40002 18.1C8.70002 18 8.90002 18 9.20002 18.2C10.2 18.7 11.4 19 12.5 19C13.9 19 15.3 18.6 16.4 17.9C17.6 17.2 18.5 16.1 19.2 14.9C19.7 13.9 20 12.7 20 11.5V11C19.9 9.2 19.1 7.5 17.8 6.2C16.5 4.9 14.8 4.1 12.9 4H12.5Z" fill="currentColor"/>
</svg>

<svg class="Icon Icon-feedback" viewBox="0 0 24 24" fill="none" xmlns="http://www.w3.org/2000/svg"><path d="M3 22c-.3 0-.5-.1-.7-.3-.3-.3-.4-.7-.2-1l1.8-5.3c-.6-1.2-.9-2.6-.9-3.9 0-1.8.5-3.5 1.4-5C5.3 5 6.7 3.8 8.3 3c1.3-.7 2.8-1 4.2-1h.5c2.4.1 4.6 1.1 6.2 2.8 1.7 1.7 2.6 3.8 2.8 6.2v.6c0 1.5-.3 2.9-1 4.3-.8 1.6-2 2.9-3.5 3.8-1.5.9-3.2 1.4-5 1.4-1.3 0-2.6-.3-3.8-.8l-5.3 1.8c-.2-.1-.3-.1-.4-.1Zm9.5-18c-1.2 0-2.3.3-3.3.8-1.3.6-2.3 1.6-3 2.8C5.4 8.7 5 10.1 5 11.5c0 1.2.3 2.3.8 3.3.1.2.1.5.1.8l-1.3 3.8 3.8-1.3c.3-.1.5-.1.8.1 1 .5 2.2.8 3.3.8 1.4 0 2.8-.4 3.9-1.1 1.2-.7 2.1-1.8 2.8-3 .5-1 .8-2.2.8-3.4V11c-.1-1.8-.9-3.5-2.2-4.8-1.3-1.3-3-2.1-4.9-2.2h-.4Z" fill="currentColor"/></svg>
